X: 36421
T: Seanamhac Tube Station
R: jig
M: 6/8
K: Aminor
|:AGE EDE|AB/c/d e2g|edB dBG|AGE DE/F/G|
A2G EDE|AB/c/d e2g|edB dBG|1 A3 A2B:|2 AAA A3||
e3 edB|ded B3|edB dBG|AGE DE/F/G|
e2e edB|ded age|edB dBG|AAA AB/c/d|
e2g edB|ded B3|edB dBG|AGE DE/F/G|
AGE AGE|AGE AGE|edB edB|A3 AB/c/d||
e3 a3|g2a b2a|age d2e|dBA GAB|
e3 a2a|g2a b3|age dBe|AAA AB/c/d|
e3 a3|g2a b2a|age d2e|dBA G3|
AGE AGE|AGE edB|edB edB|A3 A3||

